assets/img/ods/SDG-5.svg

<svg width="720" height="720" viewBox="0 0 720 720" fill="none" xmlns="http://www.w3.org/2000/svg">
<g clip-path="url(#clip0_342_58)">
<path d="M-1.08008 -1.08008H721.08V721.08H-1.08008V-1.08008Z" fill="#BBBBBB"/>
<path d="M55.6299 159.48H81.1299C81.1299 174.61 82.9999 182.48 92.5199 182.09C102.52 181.75 103.06 170.53 103.06 152.51C103.06 137.89 101.53 127.51 91.3299 127.51C85.2099 127.51 81.3299 131.76 79.5999 139.92H56.9999L58.8699 61.72H122.1V84.34H80.2799L78.9199 114.77C81.6399 111.37 88.6099 108.65 96.2599 108.14C117.51 106.27 127.88 123.14 127.88 151.32C127.88 180.56 122.27 201.64 90.9899 201.64C61.9199 201.64 55.6299 185 55.6299 159.48ZM189.22 61.63H198.71V114.28H189.22V61.63ZM205.67 96.92V79.24C205.67 67.93 209.11 61.04 220.67 61.04C231.46 61.04 235.24 66.63 235.24 76.38V79.11H226.07V76.11C226.07 71.04 225.55 68.05 220.8 68.05C215.73 68.05 215.34 72.15 215.34 76.96V99C215.34 104.46 216.34 107.91 221.06 107.91C225.78 107.91 226.85 104.27 226.85 98.55V93.61H221.2V87.61H235.51V114.33H229.26L228.61 109.19C227.96 110.997 226.741 112.545 225.136 113.599C223.531 114.654 221.627 115.16 219.71 115.04C209.31 115 205.67 108 205.67 96.92ZM242.13 97.25V61.63H251.49V98.35C251.49 103.35 252.08 107.84 256.95 107.84C261.82 107.84 262.48 103.36 262.48 98.35V61.63H271.77V97.25C271.77 108.25 268.77 114.99 256.95 114.99C245.13 114.99 242.13 108.3 242.13 97.25ZM286.59 61.63H296.86L307.39 114.28H298.49L296.41 102.12H287.24L285.1 114.28H276.1L286.59 61.63ZM295.37 96L291.79 73.9L288.22 96H295.37ZM312.33 61.63H321.89V107.71H334.69V114.28H312.33V61.63ZM339.37 61.63H351.79C364.59 61.63 368.49 66.76 368.49 78.01V97.18C368.49 108.75 364.49 114.28 352.18 114.28H339.37V61.63ZM351.92 107.58C358.48 107.58 358.74 104.07 358.74 97.51V77.36C358.74 71.05 358.09 68.45 351.79 68.45H348.93V107.58H351.92ZM382.73 61.63H393L403.53 114.28H394.62L392.54 102.12H383.38L381.23 114.28H372.23L382.73 61.63ZM391.5 96L387.93 73.9L384.35 96H391.5ZM408.46 61.63H420.88C433.69 61.63 437.59 66.76 437.59 78.01V97.18C437.59 108.75 433.59 114.28 421.27 114.28H408.46V61.63ZM421 107.58C427.57 107.58 427.83 104.07 427.83 97.51V77.36C427.83 71.05 427.18 68.45 420.83 68.45H418V107.58H421ZM444.34 61.63H466.45V68.39H453.9V83.53H463.78V90.23H453.9V107.71H466.58V114.28H444.34V61.63ZM189 147.63H201.42C214.22 147.63 218.13 152.76 218.13 164.01V183.18C218.13 194.75 214.13 200.28 201.81 200.28H189V147.63ZM201.55 193.63C208.11 193.63 208.38 190.12 208.38 183.56V163.36C208.38 157.05 207.72 154.45 201.38 154.45H198.52V193.58L201.55 193.63ZM224.84 147.63H246.94V154.39H234.4V169.53H244.28V176.23H234.4V193.71H247.07V200.28H224.84V147.63ZM267 182.92V165.24C267 153.93 270.45 147.04 282 147.04C292.79 147.04 296.56 152.63 296.56 162.38V165.11H287.39V162.11C287.39 157.04 286.87 154.05 282.13 154.05C277.06 154.05 276.67 158.15 276.67 162.96V184.96C276.67 190.42 277.67 193.87 282.39 193.87C287.11 193.87 288.17 190.23 288.17 184.51V179.57H282.5V173.52H296.8V200.24H290.56L289.91 195.1C288.48 198.48 285.91 200.95 281 200.95C270.6 201 267 194 267 182.92ZM303.82 147.63H325.92V154.39H313.37V169.53H323.25V176.23H313.37V193.71H326.05V200.28H303.82V147.63ZM311 131.51H319L325 143.51H318.44L315.06 135.71L311.74 143.51H305.24L311 131.51ZM331.31 147.63H338L350.8 177.63V147.63H358.73V200.28H352.36L339.5 168.82V200.28H331.31V147.63ZM366.41 147.63H388.51V154.39H376V169.53H385.88V176.23H376V193.71H388.67V200.28H366.41V147.63ZM393.91 147.63H406.58C417.11 147.63 423.09 151.01 423.09 161.63C423.09 167.94 421.53 172.36 416.59 174.37L423.94 200.31H414.32L408 176.16H403.45V200.28H393.9L393.91 147.63ZM406.52 170.18C412.04 170.18 414.06 167.78 414.06 162.12C414.06 156.79 412.56 154.19 407.06 154.19H403.48V170.19L406.52 170.18ZM428.94 183.77V164C428.94 153.34 432.84 147 444.15 147C455.46 147 459.3 153.31 459.3 164V183.76C459.3 194.35 455.4 200.98 444.15 200.98C432.9 200.98 428.94 194.43 428.94 183.77ZM449.55 186V161.8C449.55 157.38 448.83 154.06 444.15 154.06C439.47 154.06 438.69 157.38 438.69 161.8V186C438.69 190.36 439.41 193.87 444.15 193.87C448.89 193.87 449.55 190.4 449.55 186ZM525.68 271.77H435.52C435.217 271.77 434.926 271.89 434.71 272.103C434.495 272.317 434.373 272.607 434.37 272.91V302.91C434.372 303.214 434.494 303.505 434.71 303.72C434.925 303.935 435.216 304.057 435.52 304.06H471.42L431.56 343.9C414.145 330.215 393.23 321.707 371.208 319.35C349.185 316.993 326.943 320.882 307.027 330.571C287.11 340.261 270.323 355.36 258.585 374.143C246.846 392.925 240.631 414.631 240.65 436.78C240.65 496.78 285.57 546.35 343.5 553.86V588.38H307.94C307.788 588.377 307.638 588.405 307.497 588.461C307.357 588.517 307.229 588.601 307.121 588.707C307.013 588.813 306.927 588.94 306.869 589.079C306.81 589.219 306.78 589.369 306.78 589.52V621.64C306.778 621.792 306.808 621.942 306.866 622.083C306.924 622.223 307.01 622.35 307.118 622.456C307.226 622.563 307.355 622.646 307.496 622.702C307.637 622.758 307.788 622.784 307.94 622.78H343.5V656.78C343.499 656.931 343.527 657.082 343.585 657.222C343.642 657.362 343.727 657.489 343.834 657.596C343.941 657.703 344.068 657.788 344.208 657.845C344.348 657.903 344.498 657.931 344.65 657.93H376.75C376.902 657.931 377.052 657.903 377.193 657.845C377.334 657.788 377.462 657.704 377.57 657.597C377.677 657.49 377.763 657.363 377.821 657.222C377.88 657.082 377.91 656.932 377.91 656.78V622.78H413.47C413.62 622.781 413.769 622.753 413.908 622.696C414.047 622.639 414.173 622.555 414.279 622.449C414.385 622.343 414.469 622.217 414.526 622.078C414.583 621.939 414.611 621.79 414.61 621.64V589.52C414.61 589.218 414.49 588.928 414.276 588.714C414.062 588.5 413.772 588.38 413.47 588.38H377.91V553.3C397.641 550.067 416.227 541.873 431.923 529.488C447.619 517.102 459.911 500.932 467.644 482.494C475.378 464.056 478.299 443.955 476.135 424.079C473.97 404.202 466.791 385.201 455.27 368.86L494.57 329.55V363.09C494.571 363.241 494.602 363.39 494.661 363.529C494.72 363.668 494.806 363.794 494.914 363.9C495.021 364.006 495.149 364.09 495.289 364.146C495.429 364.203 495.579 364.231 495.73 364.23H525.68C525.986 364.233 526.28 364.114 526.5 363.901C526.719 363.687 526.845 363.396 526.85 363.09V272.91C526.845 272.604 526.719 272.313 526.5 272.099C526.28 271.886 525.986 271.767 525.68 271.77ZM358.75 523.71C341.556 523.712 324.748 518.615 310.451 509.065C296.155 499.514 285.011 485.938 278.43 470.054C271.849 454.169 270.126 436.69 273.479 419.827C276.832 402.964 285.111 387.473 297.268 375.315C309.425 363.156 324.914 354.876 341.777 351.521C358.64 348.166 376.119 349.887 392.004 356.466C407.889 363.045 421.466 374.187 431.019 388.483C440.571 402.779 445.67 419.586 445.67 436.78C445.651 459.828 436.488 481.927 420.192 498.225C403.895 514.523 381.798 523.689 358.75 523.71Z" fill="white"/>
<path d="M411.84 401.1H306.41C306.126 401.086 305.848 401.182 305.634 401.369C305.419 401.555 305.285 401.817 305.26 402.1V427.62C305.265 427.765 305.299 427.907 305.36 428.039C305.421 428.171 305.507 428.289 305.614 428.387C305.721 428.484 305.847 428.56 305.983 428.608C306.12 428.657 306.265 428.678 306.41 428.67H411.84C411.986 428.681 412.133 428.662 412.272 428.615C412.411 428.567 412.539 428.492 412.648 428.394C412.758 428.296 412.846 428.177 412.908 428.044C412.97 427.911 413.005 427.767 413.01 427.62V402.13C412.984 401.843 412.847 401.578 412.629 401.391C412.41 401.204 412.127 401.111 411.84 401.13M411.84 446.68H306.41C306.117 446.669 305.832 446.774 305.616 446.973C305.401 447.172 305.273 447.447 305.26 447.74V473.26C305.28 473.545 305.413 473.81 305.628 473.997C305.844 474.185 306.125 474.279 306.41 474.26H411.84C412.127 474.282 412.412 474.189 412.631 474.002C412.851 473.814 412.987 473.548 413.01 473.26V447.74C413.003 447.593 412.968 447.449 412.905 447.316C412.843 447.183 412.755 447.064 412.646 446.966C412.537 446.867 412.41 446.791 412.272 446.742C412.133 446.693 411.986 446.672 411.84 446.68Z" fill="white"/>
</g>
<defs>
<clipPath id="clip0_342_58">
<rect width="720" height="720" fill="white"/>
</clipPath>
</defs>
</svg>

<svg xmlns="http://www.w3.org/2000/svg" viewBox="0 0 720 720"><defs><style>.cls-2{fill:#fff}</style></defs><path fill="#ff3a21" d="M-1.08-1.08h722.16v722.16H-1.08z" id="goal_background" data-name="goal background"/><g id="ENG_text_graphics" data-name="ENG text &amp; graphics"><path class="cls-2" d="M55.63 159.48h25.5c0 15.13 1.87 23 11.39 22.61 10-.34 10.54-11.56 10.54-29.58 0-14.62-1.53-25-11.73-25-6.12 0-10 4.25-11.73 12.41H57l1.87-78.2h63.23v22.62H80.28l-1.36 30.43c2.72-3.4 9.69-6.12 17.34-6.63 21.25-1.87 31.62 15 31.62 43.18 0 29.24-5.61 50.32-36.89 50.32-29.07 0-35.36-16.64-35.36-42.16zM189.22 61.63h9.49v52.65h-9.49zM205.67 96.92V79.24c0-11.31 3.44-18.2 15-18.2 10.79 0 14.57 5.59 14.57 15.34v2.73h-9.17v-3c0-5.07-.52-8.06-5.27-8.06-5.07 0-5.46 4.1-5.46 8.91V99c0 5.46 1 8.91 5.72 8.91s5.79-3.64 5.79-9.36v-4.94h-5.65v-6h14.31v26.72h-6.25l-.65-5.14a8.87 8.87 0 01-8.9 5.85c-10.4-.04-14.04-7.04-14.04-18.12zM242.13 97.25V61.63h9.36v36.72c0 5 .59 9.49 5.46 9.49s5.53-4.48 5.53-9.49V61.63h9.29v35.62c0 11-3 17.74-14.82 17.74s-14.82-6.69-14.82-17.74zM286.59 61.63h10.27l10.53 52.65h-8.9l-2.08-12.16h-9.17l-2.14 12.16h-9zM295.37 96l-3.58-22.1-3.57 22.1zM312.33 61.63h9.56v46.08h12.8v6.57h-22.36zM339.37 61.63h12.42c12.8 0 16.7 5.13 16.7 16.38v19.17c0 11.57-4 17.1-16.31 17.1h-12.81zm12.55 45.95c6.56 0 6.82-3.51 6.82-10.07V77.36c0-6.31-.65-8.91-6.95-8.91h-2.86v39.13zM382.73 61.63H393l10.53 52.65h-8.91l-2.08-12.16h-9.16l-2.15 12.16h-9zM391.5 96l-3.57-22.1-3.58 22.1zM408.46 61.63h12.42c12.81 0 16.71 5.13 16.71 16.38v19.17c0 11.57-4 17.1-16.32 17.1h-12.81zM421 107.58c6.57 0 6.83-3.51 6.83-10.07V77.36c0-6.31-.65-8.91-7-8.91H418v39.13zM444.34 61.63h22.11v6.76H453.9v15.14h9.88v6.7h-9.88v17.48h12.68v6.57h-22.24zM189 147.63h12.42c12.8 0 16.71 5.13 16.71 16.38v19.17c0 11.57-4 17.1-16.32 17.1H189zm12.55 46c6.56 0 6.83-3.51 6.83-10.07v-20.2c0-6.31-.66-8.91-7-8.91h-2.86v39.13zM224.84 147.63h22.1v6.76H234.4v15.14h9.88v6.7h-9.88v17.48h12.67v6.57h-22.23zM267 182.92v-17.68c0-11.31 3.45-18.2 15-18.2 10.79 0 14.56 5.59 14.56 15.34v2.73h-9.17v-3c0-5.07-.52-8.06-5.26-8.06-5.07 0-5.46 4.1-5.46 8.91v22c0 5.46 1 8.91 5.72 8.91s5.78-3.64 5.78-9.36v-4.94h-5.67v-6.05h14.3v26.72h-6.24l-.65-5.14c-1.43 3.38-4 5.85-8.91 5.85-10.4.05-14-6.95-14-18.03zM303.82 147.63h22.1v6.76h-12.55v15.14h9.88v6.7h-9.88v17.48h12.68v6.57h-22.23zm7.18-16.12h8l6 12h-6.56l-3.38-7.8-3.32 7.8h-6.5zM331.31 147.63H338l12.8 30v-30h7.93v52.65h-6.37l-12.86-31.46v31.46h-8.19zM366.41 147.63h22.1v6.76H376v15.14h9.88v6.7H376v17.48h12.67v6.57h-22.26zM393.91 147.63h12.67c10.53 0 16.51 3.38 16.51 14 0 6.31-1.56 10.73-6.5 12.74l7.35 25.94h-9.62L408 176.16h-4.55v24.12h-9.55zm12.61 22.55c5.52 0 7.54-2.4 7.54-8.06 0-5.33-1.5-7.93-7-7.93h-3.58v16zM428.94 183.77V164c0-10.66 3.9-17 15.21-17s15.15 6.31 15.15 17v19.76c0 10.59-3.9 17.22-15.15 17.22s-15.21-6.55-15.21-17.21zm20.61 2.23v-24.2c0-4.42-.72-7.74-5.4-7.74s-5.46 3.32-5.46 7.74V186c0 4.36.72 7.87 5.46 7.87s5.4-3.47 5.4-7.87zM525.68 271.77h-90.16a1.15 1.15 0 00-1.15 1.14v30a1.16 1.16 0 001.15 1.15h35.9l-39.86 39.84a118 118 0 00-190.91 92.88c0 60 44.92 109.57 102.85 117.08v34.52h-35.56a1.14 1.14 0 00-1.16 1.14v32.12a1.13 1.13 0 001.16 1.14h35.56v34a1.14 1.14 0 001.15 1.15h32.1a1.15 1.15 0 001.16-1.15v-34h35.56a1.13 1.13 0 001.14-1.14v-32.12a1.14 1.14 0 00-1.14-1.14h-35.56V553.3a118 118 0 0077.36-184.44l39.3-39.31v33.54a1.15 1.15 0 001.16 1.14h29.95a1.16 1.16 0 001.17-1.14v-90.18a1.16 1.16 0 00-1.17-1.14M358.75 523.71a86.93 86.93 0 1186.92-86.93 87 87 0 01-86.92 86.93"/><path class="cls-2" d="M411.84 401.1H306.41a1.1 1.1 0 00-1.15 1v25.52a1.09 1.09 0 001.15 1.05h105.43a1.09 1.09 0 001.17-1.05v-25.49a1.1 1.1 0 00-1.17-1M411.84 446.68H306.41a1.11 1.11 0 00-1.15 1.06v25.52a1.08 1.08 0 001.15 1h105.43a1.09 1.09 0 001.17-1v-25.52a1.11 1.11 0 00-1.17-1.06"/></g></svg>
